svg/fluentui-system-icons/ic_fluent_document_split_hint_off_16_filled.svg

<svg width="16" height="16" viewBox="0 0 16 16" fill="none" xmlns="http://www.w3.org/2000/svg">
<path d="M3 3.70711V7.5C3 7.77614 3.22386 8 3.5 8H7.29289L12 12.7071V13C12 13.5523 11.5523 14 11 14H10.5C10.2239 14 10 14.2239 10 14.5C10 14.7761 10.2239 15 10.5 15H11C11.8912 15 12.6462 14.4171 12.9047 13.6118L14.1464 14.8536C14.3417 15.0488 14.6583 15.0488 14.8536 14.8536C15.0488 14.6583 15.0488 14.3417 14.8536 14.1464L1.85355 1.14645C1.65829 0.951185 1.34171 0.951185 1.14645 1.14645C0.951184 1.34171 0.951184 1.65829 1.14645 1.85355L3 3.70711ZM12 9.87891L12.9089 10.7878C12.9663 10.7064 13 10.6072 13 10.5V9.5C13 9.22386 12.7761 9 12.5 9C12.2239 9 12 9.22386 12 9.5V9.87891ZM3.50161 1.38051L10.1211 8H12.5C12.7761 8 13 7.77614 13 7.5V6H9.5C8.67157 6 8 5.32843 8 4.5V1H4.5C4.1166 1 3.76679 1.14385 3.50161 1.38051ZM9 4.5V1.25L12.75 5H9.5C9.22386 5 9 4.77614 9 4.5ZM4 9.5C4 9.22386 3.77614 9 3.5 9C3.22386 9 3 9.22386 3 9.5V10.5C3 10.7761 3.22386 11 3.5 11C3.77614 11 4 10.7761 4 10.5V9.5ZM4 12.5C4 12.2239 3.77614 12 3.5 12C3.22386 12 3 12.2239 3 12.5V13C3 14.1046 3.89543 15 5 15H5.5C5.77614 15 6 14.7761 6 14.5C6 14.2239 5.77614 14 5.5 14H5C4.44772 14 4 13.5523 4 13V12.5ZM7.5 14C7.22386 14 7 14.2239 7 14.5C7 14.7761 7.22386 15 7.5 15H8.5C8.77614 15 9 14.7761 9 14.5C9 14.2239 8.77614 14 8.5 14H7.5Z" fill="#212121"/>
</svg>

<svg xmlns="http://www.w3.org/2000/svg" width="16" height="16"><path d="M3 3.707V7.5a.5.5 0 0 0 .5.5h3.793L12 12.707V13a1 1 0 0 1-1 1h-.5a.5.5 0 0 0 0 1h.5a2 2 0 0 0 1.905-1.388l1.241 1.242a.5.5 0 0 0 .708-.708l-13-13a.5.5 0 1 0-.708.708L3 3.707Zm9 6.172.909.909A.498.498 0 0 0 13 10.5v-1a.5.5 0 0 0-1 0v.379ZM3.502 1.38 10.122 8H12.5a.5.5 0 0 0 .5-.5V6H9.5A1.5 1.5 0 0 1 8 4.5V1H4.5c-.383 0-.733.144-.998.38ZM9 4.5V1.25L12.75 5H9.5a.5.5 0 0 1-.5-.5Zm-5 5a.5.5 0 0 0-1 0v1a.5.5 0 0 0 1 0v-1Zm0 3a.5.5 0 0 0-1 0v.5a2 2 0 0 0 2 2h.5a.5.5 0 0 0 0-1H5a1 1 0 0 1-1-1v-.5ZM7.5 14a.5.5 0 0 0 0 1h1a.5.5 0 0 0 0-1h-1Z"/></svg>
